X:123
%%musicspace -12
%%topspace -50
T:Dingle Regatta
M:6/8
L:1/8
K:G
Bc | "G"d^cd e2d | BAB d2B | "D"A2A AGA | "G"B2A G2B | d^cd e2d | BAB d2B | 
"D7"A2A ABA | "G"G3- G :|]|: z2 | "D7"d3 def | "G"g3 gfg | "D"a2a aga | "G"b2a gfe |
"D"d2d def | "G"g2g gfg | "D"a2g f2e | "D7"def "G"g :|]|: z2 | "G"gbg dgd | BdB G2G | 
"D"FGA DEF | "G"G2B d2d | "G"gbg dgd | BdB G2G | "D7"FGA DEF | "G"G3-G :|]

